X:605
T: Jiangnan xinsijun
N: C2122
O: China,Shanxi Zuoquan
S: I, 308, 2)]
N: Han
R: Xiaodiao, Huipuojia]
M: 2/4
L: 1/16
K: A
B3BB2e2 | d2c2B2c2 | e2G2B2cB | A2GFE4 |
A2GFE4 | B2e2d2c2 | B4E2F2 | A4G2F2 | E2EEFEC2 | E8

@@@ Tune index: 7160
